X:857
T:O'Reilly's Greyhound
T:Murphy's Greyhound
T:Tory Island
R:reel
D:Tommy Keane & Jacqueline McCarthy: The Wind among the Reeds
Z:id:hn-reel-857
M:C|
L:1/8
K:G
edBA ~G3A | (3Bcd ef g2fg | edBA ~G3A | Bded BA~A2 |
edBA ~G3A | (3Bcd ef g2ga | bgaf gfed | gedB BA~A2 ||
ea~a2 bgag | eaaf gedg | ea~a2 bgag | egdB BA~A2 |
ea~a2 bgag | eaaf ~g3a | bgaf gfed | (3Bcd ef g2fg ||
P:variations
edBA BGGA | (3Bcd ef g2ag | edBA GABd | eBdB BA~A2 |
edBA BGGA | (3Bcd ef g2fg | edBA GABd | e2dB BA~A2 ||
ea~a2 bgag | eaaf gbag | ea~a2 bgag | egdB BA~A2 |
ea~a2 bgag | eaaf ~g3a | bgaf gfed | (3Bcd ef g2fg ||
P:more variations
|: edBA ~G3A | (3Bcd ef gefd | edBA GABc | dged BA~A2 :|
ea~a2 bgag | edef ~g3d | ea~a2 bgag | egdB BA~A2 |
ea~a2 b2ag | edef ~g3a | bgaf gfed | (3Bcd ef gefd ||

